!!!COM: Palestrina, Giovanni Perluigi da
!!!OPR: Missa Confitebor tibi
!!!OMD: Credo
!!!OTL: Deum Deo
**kern	**kern	**kern	**kern	**kern	**kern	**kern	**kern
*Ibass	*Itenor	*Icalto	*Icant	*Ibass	*Itenor	*Icalto	*Icant
!Bassus	!Tenor	!Altus	!Cantus	!Bassus	!Tenor	!Altus	!Cantus
*clefF4	*clefGv2	*clefG2	*clefG2	*clefF4	*clefGv2	*clefG2	*clefG2
*k[b-]	*k[b-]	*k[b-]	*k[b-]	*k[b-]	*k[b-]	*k[b-]	*k[b-]
*G:dor	*G:dor	*G:dor	*G:dor	*G:dor	*G:dor	*G:dor	*G:dor
*M3/2	*M3/2	*M3/2	*M3/2	*M3/2	*M3/2	*M3/2	*M3/2
=33	=33	=33	=33	=33	=33	=33	=33
1G	1d	1g	1b-	1G	1G	1d	1g
2D	2d	2f	2a	2r	2r	2r	2r
=34	=34	=34	=34	=34	=34	=34	=34
2G	2d	2g	2b-	1r	1r	1r	1r
1F	1f	1a	1cc	.	.	.	.
.	.	.	.	2r	2r	2r	2r
=35	=35	=35	=35	=35	=35	=35	=35
2B-	2f	2b-	2dd	1r	1r	1r	1r
2BB-	2f	2b-	2dd	.	.	.	.
2F	2f	2a	2cc	2r	2r	2r	2r
=36	=36	=36	=36	=36	=36	=36	=36
2D	2f	2a	2dd	1r	1r	1r	1r
2.G	2.d	2.g	2.b-	.	.	.	.
.	.	.	.	2r	2r	2r	2r
4G	4d	4g	4b-	.	.	.	.
=37	=37	=37	=37	=37	=37	=37	=37
1D	1d	1f#	1a	1d	2r	1a	1dd
.	.	.	.	.	2d	.	.
2r	2r	2r	2r	2A	2e	2a	2cc#
=38	=38	=38	=38	=38	=38	=38	=38
1r	1r	1r	1r	1d	1f	1a	1dd
2r	2r	2r	2r	2c	2g	2cc	2ee
=39	=39	=39	=39	=39	=39	=39	=39
1r	1r	1r	1r	1F	1a	1cc	1ff
2r	2r	2r	2r	2c	2g	2cc	2ee
=40	=40	=40	=40	=40	=40	=40	=40
1r	1r	1r	1r	2A	2a	2cc	2ee
.	.	.	.	1d	1f	1a	1dd
2r	2r	2r	2r	.	.	.	.
*-	*-	*-	*-	*-	*-	*-	*-
!!!CDT: 1525/^1526/-1594/2/2
!!!OCY: Italia
!!!AGN: Mass (Parody)
!!!AST: renaissance, vocal
!!!ASW: Motet 1572 (Palestrina)
!!!PWK: Masses, Book 8vce
!!!RNB: Cadence finals: D,Bb
!!!YOR: Le Opere Complete, v. 30, p. 163
!!!YOO: Rome, Italy: Fratelli Scalera
!!!END: 1992//
!!!EED: John Miller
!!!YEC: Copyright 2000, John Miller
!!!YEN: United States of America
!!!YEM: Rights to all derivative electronic formats reserved.
!!!YEM: Refer to licensing agreement for further details.
!!!YEM: This file must be accompanied by the licensing agreement.
!!!YEM: A copy of the licensing agreement may be found at http://www.music-cog.ohio-state.edu/HumdrumDatabases/Palestrina/license.txt
!!!EMD: converted to Humdrum by Bret Aarden
